X: 14807
T: Gap Of Dreams, The
R: jig
M: 6/8
K: Bminor
B2f dBf|dBf cAF|B2f dBf|Bcd cde|
B2f dBf|dBf cAF|GAB cde|fec B2 [1A:|2 F]|
|:GAB cde|Bcd efg|aAA gag|fed ecA|
GAB cde|Bcd efg|aAA gag|fdc d3:|

